!!!ONB: MCCC : IJH0402_04 : Extracted Monophonic Melody
!!!COM: Haydn, Joseph
!!!OPR: String Quartet in A major
!!!OMV: 4
!!!SCT: Hob.III:60 ; Op.55 No.1
!!!ODT: 1788///
**kern
*thru
*>A
*clefG2
*k[f#c#g#]
*A:
*M4/4
8bb
8aa
2r
4r
=1
8gg#
8aa
8ff#
8gg#
8ee
8ff#
8dd
8ee
=2
4cc#
4cc#
4cc#
4cc#
=3
4ee
4dd#
4dd
4cc#
=4
8b
8a
8b
8cc#
4b
8bb
8aa
=5
8gg#
8aa
8ff#
8gg#
8ee
8ff#
8dd
8ee
=6
4cc#
4cc#
4cc#
4cc#
=7
4ee
4dd
8ff#
8gg#
8gg#
8aa
=8
2.a
8cc#
8b
=9
4a
4r
4r
=10
*>A
8bb
8aa
2r
4r
=11
8gg#
8aa
8ff#
8gg#
8ee
8ff#
8dd
8ee
=12
4cc#
4cc#
4cc#
4cc#
=13
4ee
4dd#
4dd
4cc#
=14
8b
8a
8b
8cc#
4b
8bb
8aa
=15
8gg#
8aa
8ff#
8gg#
8ee
8ff#
8dd
8ee
=16
4cc#
4cc#
4cc#
4cc#
=17
4ee
4dd
8ff#
8gg#
8gg#
8aa
=18
2.a
8cc#
8b
=19
4a
4r
4r
=20
*>B
8g#
8a
2r
4r
=21
8b
8a
8cc#
8b
4dd
4cc#
=22
4b
4ee
4ee
4ee
=23
8dd#
8ee
8ff#
8gg#
4aa
4aa
=24
8aa
8gg#
8bb
8gg#
4ee
8gg#
8aa
=25
8bb
8aa
8ccc#
8bb
4ddd
4ddd
=26
2.ccc#
8aa
8ff#
=27
4ee
4ee
4ee
8gg#
8ff#
=28
2.ee
8gg
8ff#
=29
8ee
8ff#
8dd
8ee
4cc#
8ff#
8ee
=30
8dd
8ee
8cc#
8dd
4b
8ff#
8ee
=31
8dd
8ee
8cc#
8dd
4b
4r
=32
2r
4r
8bb
8aa
=33
8gg#
8aa
8ff#
8gg#
8ee
8ff#
8dd
8ee
=34
4cc#
4cc#
4cc#
4cc#
=35
4ee
4dd#
4dd
4cc#
=36
8b
8a
8b
8cc#
4b
8bb
8aa
=37
8gg#
8aa
8ff#
8gg#
8ee
8ff#
8dd
8ee
=38
4cc#
4cc#
4cc#
4cc#
=39
4ee
4dd
8ff#
8gg#
8gg#
8aa
=40
2.a
8cc#
8b
=41
*>1st ending
4a
4r
4r
=42
*>2nd ending
*>B
8g#
8a
2r
4r
=43
8b
8a
8cc#
8b
4dd
4cc#
=44
4b
4ee
4ee
4ee
=45
8dd#
8ee
8ff#
8gg#
4aa
4aa
=46
8aa
8gg#
8bb
8gg#
4ee
8gg#
8aa
=47
8bb
8aa
8ccc#
8bb
4ddd
4ddd
=48
2.ccc#
8aa
8ff#
=49
4ee
4ee
4ee
8gg#
8ff#
=50
2.ee
8gg
8ff#
=51
8ee
8ff#
8dd
8ee
4cc#
8ff#
8ee
=52
8dd
8ee
8cc#
8dd
4b
8ff#
8ee
=53
8dd
8ee
8cc#
8dd
4b
4r
=54
2r
4r
8bb
8aa
=55
8gg#
8aa
8ff#
8gg#
8ee
8ff#
8dd
8ee
=56
4cc#
4cc#
4cc#
4cc#
=57
4ee
4dd#
4dd
4cc#
=58
8b
8a
8b
8cc#
4b
8bb
8aa
=59
8gg#
8aa
8ff#
8gg#
8ee
8ff#
8dd
8ee
=60
4cc#
4cc#
4cc#
4cc#
=61
4ee
4dd
8ff#
8gg#
8gg#
8aa
=62
2.a
8cc#
8b
=63
*>1st ending
4a
4r
4r
=64
*>2nd ending
*>C
4a
4r
4r
8G#
8A
=65
8B
8c#
8d
8e
8f#
8g#
8a
8b
=66
4cc#
4dd
4ee
8B
8c#
=67
8d
8e
8f#
8g#
8a
8b
8cc#
8dd
=68
4ee
4gg#
4aa
4ccc#
=69
4ccc#
4ccc#
4ccc#
4ccc#
=70
8ccc#
8ddd
8ccc#
8bb
4aa
8ff#
8gg#
=71
8aa
8bb
4ccc#
4ccc#
4ccc#
=72
8bb
8ccc#
8bb
8aa
4gg#
8bb
8aa
=73
8gg#
8ff#
8ee
8dd#
8cc#
8b
8a
8g#
=74
8f#
8g#
8f#
8g#
8f#
8g#
8f#
8g#
=75
4b
4a#
4a
4g#
=76
8f#
8g#
8f#
8g#
8f#
8g#
8f#
8g#
=77
4b
4a#
4a
4g#
=78
8f#
8g#
8f#
8g#
8f#
8g#
8f#
8g#
=79
8f#
8g
8f#
8g
4g
8f#
8e
=80
4d#
4b
4B
8aa
8gg#
=81
8ff#
8ee
8dd#
8cc#
8b
8a
8g#
8f#
=82
4e
4r
4r
8aa
8gg#
=83
8ff#
8ee
8dd#
8cc#
8b
8a
8g#
8f#
=84
4e
4r
4r
8aa
8gg#
=85
8ff#
8ee
8dd#
8cc#
4b
8ccc#
8bb
=86
8aa
8gg#
8ff#
8ee
4dd#
8eee
8ddd#
=87
8eee
8ddd#
8eee
8ddd#
8eee
8ddd#
8ccc#
8bb#
=88
8ccc#
8bb#
8ccc#
8bb#
8ccc#
8aa
8gg#
8ff#
=89
2ee
8gg#
8ff#
8ee
8ff#
=90
2.ee
8gg
8ff#
=91
8ee
8ff#
8dd
8ee
4cc#
8ff#
8ee
=92
8dd
8ee
8cc#
8dd
4b
8ff#
8ee
=93
8dd
8ee
8cc#
8dd
4b
4r
=94
2r
4r
8bb
8aa
=95
8gg#
8aa
8ff#
8gg#
8ee
8ff#
8dd
8ee
=96
8cc#
8dd
8ee
8cc#
8a
8b
8cc#
8a
=97
8f#
8g#
8a
8f#
8b
8cc#
8b
8a
=98
8g#
8a
8b
8a
8g#
8e
8f#
8g#
=99
2a
2r
=100
1r
=101
1r
=102
1ee
=103
2aa
2ccc#
=104
1dd#
=105
2.ee
8ff#
8gg#
=106
2aa
2r
=107
4r
4a
4a
4a
=108
2dd
4b
4ee[
=109
8ee]
8ff#
8ee
8dd
4cc#
4r
=110
1r
=111
1r
=112
1dd
=113
2gg
2bb
=114
1cc#
=115
8dd
8b
8dd
8ee
8ff#
8dd
8ee
8ff#
=116
8gg
8ee
8ff#
8gg
8aa
8bb
8aa
8gg
=117
8ff#
8dd
8ee
8ff#
8gg
8aa
8gg
8ff#
=118
8ee
8cc#
8dd
8ee
8ff#
8gg
8ff#
8ee
=119
8dd
8ee
8cc#
8dd
8b
8cc#
8a
8b
=120
8g#
8a
8b
8g#
8cc#
8dd
8cc#
8b
=121
2a
2r
=122
2r
4r
8bb
8aa
=123
8gg#
8aa
8ff#
8gg#
8ee
8ff#
8dd
8ee
=124
8cc#
8dd
8ee
8cc#
8a
8b
8cc#
8a
=125
8f#
8g#
8a
8f#
8dd
8ee
8ff#
8dd
=126
8b
8cc#
8dd
8b
8ee
8ff#
8ee
8dd
=127
8cc#
8dd
8ee
8cc#
8a
8b
8cc#
8a
=128
8f#
8g#
8a
8f#
8dd
8cc#
8b
8a
=129
8g#
8a
8b
8g#
8ee
8dd
8cc#
8b
=130
8a
8b
8cc#
8a
8ff#
8ee
8dd
8cc#
=131
8b
8cc#
8dd
8b
8ee
8ff#
8ee
8dd
=132
8cc#
8dd
8b
8cc#
8a
8ff#
8ee
8dd
=133
8cc#
8dd
8b
8cc#
8a
8aa
8ccc#
8bb
=134
8aa
8bb
8aa
8gg#
8ff#
8gg#
8ff#
8ee
=135
4dd#
4dd#
4dd#
4aa
=136
4dd#
4dd#
4dd#
4fff#
=137
4dd#
4dd#
4dd#
4aa
=138
4dd#
4dd#
4dd#
4fff#
=139
4dd#
4fff#
4dd#
4fff#
=140
4dd#
4r
2r
=141
2r
4r
8bb
8aa
=142
8gg#
8aa
8ff#
8gg#
8ee
8ff#
8dd
8ee
=143
4cc#
4cc#
4cc#
4cc#
=144
4ee
4dd#
4dd
4cc#
=145
8b
8a
8b
8cc#
4b
8bb
8aa
=146
8gg#
8aa
8ff#
8gg#
8ee
8ff#
8dd
8ee
=147
4cc#
4cc#
4cc#
4cc#
=148
4ee
4dd
8ff#
8gg#
8gg#
8aa
=149
2.a
8cc#
8b
=150
4a
4r
8b
8cc#
8cc#
8dd
=151
4cc#
4r
8dd
8ee
8ee
8ff#
=152
4ee
4r
8aa
8gg#
8aa
8ee#
=153
4ff#
4r
8dd
8cc#
8dd
8a#
=154
4b
4r
8dd
8cc#
8dd
8b
=155
8ff#
8gg#
8aa
8gg#
8aa
8gg#
8aa
8gg#
=156
8aa
8gg#
8aa
8gg#
8aa
8gg#
8aa
8gg#
=157
4aa
4ee
4ccc#
4aa
=158
4eee
4r
2r
=159
2r
4r
8f#
8e
=160
8d
8e
8d
8c#
4B
4r
=161
2r
4r
8ff#
8ee
=162
8dd
8ee
8dd
8cc#
4b
8bb
8aa
=163
8gg#
8aa
8ff#
8gg#
8ee
8ff#
8dd
8ee
=164
4cc#
4cc#
4cc#
4cc#
=165
4ee
4dd#
4dd
4cc#
=166
8b
8a
8b
8cc#
4b
8bb
8aa
=167
8gg#
8aa
8ff#
8gg#
8ee
8ff#
8dd
8ee
=168
4cc#
4cc#
4cc#
4cc#
=169
4ee
4dd
8ff#
8gg#
8gg#
8aa
=170
2.a
8cc#
8b
=171
4a
4r
4r
8G#
8A
=172
8B
8c#
8d
8e
8f#
8g#
8a
8b
=173
4cc#
4dd
4ee
8B
8c#
=174
8d
8e
8f#
8g#
8a
8b
8cc#
8dd
=175
4ee
4gg#
4aa
8bb
8ddd
=176
4ccc#
8gg#
8bb
4aa
8b
8dd
=177
4cc#
8g#
8b
4a
8d
8B
=178
4A
4r
4gg#
4r
=179
4aa
4r
2r
==
*-
